X:90
T:General Elliot's Delight
M:6/8
L:1/8
B:Thompson's Compleat Collection of 200 Favourite Country Dances, vol. 2 (London, 1765)
Z:Transcribed and edited by Flynn Titford-Mock, 2007
Z:abc's:AK/Fiddler's Companion
K:A
AAE A2B | c>dc BGE | AAE A2d |1 cBA e3 :|2 cdB A3 |: ece f2a | e>fe ecA |
ece f2a | c?BA e3 :: {cd}e>fe ecA | B>cB BGE | e>fe ecA | ceE A3 :|

